src/assets/images/icons/menu-add-line.svg

<svg xmlns="http://www.w3.org/2000/svg" width="24" height="24" fill="none" viewBox="0 0 24 24"><g clip-path="url(#a)"><path fill="#181d27" d="m18 15-.001 3H21v2h-3.001L18 23h-2l-.001-3H13v-2h2.999L16 15zm-7 3v2H3v-2zm10-7v2H3v-2zm0-7v2H3V4z"/></g><defs><clipPath id="a"><path fill="#fff" d="M0 0h24v24H0z"/></clipPath></defs></svg>

<svg width="24" height="24" viewBox="0 0 24 24" fill="none" xmlns="http://www.w3.org/2000/svg">
<g clip-path="url(#clip0_58_16788)">
<path d="M18 15L17.999 18H21V20H17.999L18 23H16L15.999 20H13V18H15.999L16 15H18ZM11 18V20H3V18H11ZM21 11V13H3V11H21ZM21 4V6H3V4H21Z" fill="#181D27"/>
</g>
<defs>
<clipPath id="clip0_58_16788">
<rect width="24" height="24" fill="white"/>
</clipPath>
</defs>
</svg>
